X:1
T:James Gibb editions
T:Souls of men! Why will ye scatter - Barnby
%%score [ ( 1 2 ) ( 3 4 ) ]
L:1/8
Q:1/4=120
M:3/2
K:D
V:1 treble nm="Midi_74"
V:2 treble 
V:3 bass nm="Midi_74"
V:4 bass 
V:1
"^Frederick William Faber\n(1814-63)""^Faber (87. 87. D)""^Souls of men! Why will ye scatter""^Joseph Barnby\n(1838-96)" F3 F | %1
 A6 A2 B2 c2 | d4 F4 || G2 A2 | B3 D D4 E4 | F8 || F2 F2 | c4 c4 d2 e2 | e4 d4 || F2 F2 | %10
 ^G2 d2 c4 B4 | A8 || A2 A2 | B4 A4 A2 A2 | B4 A4 || A2 A2 | =c6 c2 B2 A2 | B8 || B2 B2 | %19
 e6 d2 c2 B2 | A4 A4 || B2 A2 | G2 E2 D4 C4 | D12 || G12 | F12 |] %26
V:2
 D3 D | F6 F2 F2 E2 | D4 D4 || =C2 C2 | B,3 D D4 D4 | D8 || F2 F2 | E4 E4 D2 C2 | C4 D4 || D2 D2 | %10
 D2 F2 E4 D4 | C8 || A2 A2 | E4 E4 A2 A2 | D4 D4 || A2 A2 | F6 F2 F2 F2 | (G4 D4) || ^D2 D2 | %19
 E4- G4 G2 G2 | G4- (F2 E2) || D2 =C2 | B,2 B,2 A,4 A,4 | A,12 || D12 | D12 |] %26
V:3
 A,3 A, | D6 A,2 A,2 G,2 | F,4 D,4 || E,2 F,2 | G,3 B, B,4 B,4 | A,8 || F,2 F,2 | %7
 F,4 F,4 ^A,2 A,2 | ^A,4 B,4 || B,2 B,2 | B,2 A,2 ^G,4 G,4 | A,8 || %12
"^1 Souls of men, why will ye scatter\nLike a crowd of frightened sheep?\nFoolish hearts, why will ye wander\nFrom a love so true and deep?\nWas there ever kinder shepherd\nHalf so gentle, half so sweet,\nAs the Saviour Who would have us\nCome and gather round His feet?\n\n2 There’s a wideness in God’s mercy,\nLike the wideness of the sea;\nThere’s a kindness in His justice,\nWhich is more than liberty.\nThere is plentiful redemption\nIn the blood that has been shed;\nThere is joy for all the members\nIn the sorrows of the Head.\n\n3 For the love of God is broader\nThan the measure of man’s mind.\nAnd the heart of the Eternal\nIs most wonderfully kind.\nIf our love were but more simple,\nWe should take Him at His word;\nAnd our lives would all be sunshine\nIn the sweetness of our Lord.\n" A,2 A,2 | %13
 C4 C4 A,2 A,2 | D4 D4 || A,2 A,2 | A,6 A,2 B,2 =C2 | B,8 || A,2 A,2 | G,4 B,4 E2 E2 | %20
 E4 (A,2 G,2) || F,2 D,2 | D,2 E,2 F,4 G,4 | F,12 || B,12 | A,12 |] %26
V:4
 D,3 D, | D,6 D,2 D,2 A,,2 | B,,4 B,,4 || A,,2 A,,2 | G,,3 G,, G,,4 G,,4 | D,8 || F,2 F,2 | %7
 ^A,,4 A,,4 F,2 F,2 | F,4 B,4 || B,,2 B,,2 | E,2 E,2 E,4 E,4 | A,8 || A,2 A,2 | G,4 G,4 A,2 A,2 | %14
 F,4 F,4 || A,2 A,2 | D,6 D,2 D,2 D,2 | G,8 || F,2 F,2 | E,4 E,4 E,2 D,2 | C,4 D,4 || D,2 D,2 | %22
 G,,2 G,,2 A,,4 A,,4 | D,12 || G,,12 | D,12 |] %26

